build/images/content/icons/scooter.svg

<svg width="50" height="44" viewBox="0 0 50 44" fill="none" xmlns="http://www.w3.org/2000/svg">
<path d="M48.5118 31.3922C49.2823 31.3503 49.8947 30.7133 49.8947 29.9314C49.8947 25.7162 46.5111 22.4142 42.1917 22.4142H40.7643L39.0195 14.1328C40.7031 13.4013 41.884 11.7215 41.884 9.76999C41.884 7.1487 39.754 5.01608 37.1358 5.01608H30.3863C29.5783 5.01608 28.9232 5.67194 28.9232 6.48093V8.30515H25.3268C24.5188 8.30515 23.8637 8.961 23.8637 9.76999C23.8637 10.579 24.5188 11.2348 25.3268 11.2348H28.9232V13.0591C28.9232 13.868 29.5783 14.5239 30.3863 14.5239H31.0359C29.8246 15.9564 29.0919 17.8069 29.0919 19.8265V28.1624C29.0919 28.2051 29.0572 28.2398 29.0146 28.2398H23.1044C23.0703 28.2398 23.0398 28.2171 23.0302 28.1843L21.4369 22.7935C22.721 22.4501 23.6698 21.2757 23.6698 19.8833C23.6698 16.5769 20.9832 13.8871 17.681 13.8871H4.49863C2.01816 13.887 0 15.9076 0 18.3912C0 20.6617 1.68682 22.5441 3.87148 22.8508C1.55391 24.9263 0.0924805 27.9416 0.0924805 31.2925V35.853C0.0924805 36.662 0.747559 37.3178 1.55557 37.3178H2.82148C3.50293 40.7202 6.50957 43.2915 10.1054 43.2915C13.7012 43.2915 16.7078 40.7202 17.3893 37.3178H35.2867C35.9682 40.7202 38.9748 43.2915 42.5706 43.2915C46.6671 43.2915 49.9999 39.9546 49.9999 35.853C50 34.1807 49.4457 32.6359 48.5118 31.3922ZM46.729 28.4666H43.4354C43.1515 28.4335 42.8633 28.4145 42.5707 28.4145C42.0463 28.4145 41.5348 28.47 41.0408 28.5739V25.3439H42.1918C44.3346 25.3439 46.1062 26.6337 46.729 28.4666ZM31.8493 7.94567H37.1358C38.1405 7.94567 38.9579 8.76403 38.9579 9.76989C38.9579 10.7758 38.1405 11.5941 37.1358 11.5941H31.8493V7.94567ZM23.1045 31.1694H29.0146C30.6708 31.1694 32.0181 29.8205 32.0181 28.1623V19.8264C32.0181 17.3087 33.7843 15.196 36.1414 14.6654L38.1147 24.0316V29.9049C36.6829 30.983 35.6518 32.5663 35.2868 34.3881H20.7409C20.0576 29.1324 15.7176 25.2003 10.3006 25.2003C7.88506 25.2003 5.7165 25.9893 4.00557 27.3458C5.41885 24.7001 8.20518 22.8955 11.4056 22.8955H18.4159L20.2247 29.0156C20.5993 30.2838 21.7836 31.1694 23.1045 31.1694ZM3.1375 34.3881C3.39316 32.8297 4.05889 31.4239 5.07695 30.3346C6.40576 28.9129 8.26084 28.1299 10.3004 28.1299C14.074 28.1299 17.1226 30.7818 17.7771 34.388H3.1375V34.3881ZM4.49863 19.9658C3.63154 19.9658 2.92607 19.2594 2.92607 18.3912C2.92607 17.5229 3.63154 16.8166 4.49863 16.8166H17.681C19.3698 16.8166 20.7437 18.1922 20.7437 19.8831C20.7313 19.9433 20.6348 19.9832 20.4552 19.9656C19.238 19.9656 19.5859 19.9656 19.3324 19.9656C17.5843 19.9658 4.50713 19.9658 4.49863 19.9658ZM10.1054 40.3617C8.13437 40.3617 6.45625 39.0868 5.84746 37.3177H14.3633C13.7545 39.0868 12.0764 40.3617 10.1054 40.3617ZM42.5707 40.3617C40.0876 40.3617 38.0675 38.339 38.0675 35.8529C38.0675 33.3668 40.0877 31.3442 42.5707 31.3442C45.0538 31.3442 47.0739 33.3668 47.0739 35.8529C47.0739 38.339 45.0537 40.3617 42.5707 40.3617Z" fill="#63A60E"/>
<path d="M42.5707 37.3275C43.3841 37.3275 44.0435 36.6674 44.0435 35.853C44.0435 35.0387 43.3841 34.3785 42.5707 34.3785C41.7573 34.3785 41.0979 35.0387 41.0979 35.853C41.0979 36.6674 41.7573 37.3275 42.5707 37.3275Z" fill="#63A60E"/>
<path d="M1.52443 9.64089H14.6463C15.4543 9.64089 16.1094 8.98503 16.1094 8.17605C16.1094 7.36707 15.4543 6.71121 14.6463 6.71121H1.52443C0.716418 6.71121 0.0613403 7.36707 0.0613403 8.17605C0.0613403 8.98503 0.716418 9.64089 1.52443 9.64089Z" fill="#63A60E"/>
<path d="M6.38496 3.63827H19.6199C20.4279 3.63827 21.083 2.98241 21.083 2.17343C21.083 1.36445 20.4279 0.708588 19.6199 0.708588H6.38496C5.57695 0.708588 4.92188 1.36445 4.92188 2.17343C4.92188 2.98241 5.57695 3.63827 6.38496 3.63827Z" fill="#63A60E"/>
</svg>

<svg width="50" height="44" fill="none" xmlns="http://www.w3.org/2000/svg"><path d="M48.512 31.392a1.463 1.463 0 001.383-1.46c0-4.216-3.384-7.518-7.703-7.518h-1.428l-1.745-8.281a4.76 4.76 0 002.865-4.363 4.756 4.756 0 00-4.748-4.754h-6.75c-.808 0-1.463.656-1.463 1.465v1.824h-3.596a1.464 1.464 0 000 2.93h3.596v1.824c0 .809.655 1.465 1.463 1.465h.65a8.187 8.187 0 00-1.944 5.303v8.335a.077.077 0 01-.077.078h-5.91a.078.078 0 01-.075-.056l-1.593-5.39a3.017 3.017 0 002.233-2.91c0-3.307-2.687-5.997-5.989-5.997H4.499A4.506 4.506 0 000 18.391a4.509 4.509 0 003.871 4.46 11.307 11.307 0 00-3.779 8.442v4.56c0 .809.656 1.465 1.464 1.465H2.82c.682 3.402 3.689 5.974 7.284 5.974 3.596 0 6.603-2.572 7.284-5.974h17.898c.681 3.402 3.688 5.974 7.284 5.974 4.096 0 7.429-3.337 7.429-7.439a7.404 7.404 0 00-1.488-4.46zm-1.783-2.925h-3.294a7.425 7.425 0 00-2.395.107v-3.23h1.152c2.143 0 3.914 1.29 4.537 3.123zM31.849 7.946h5.287a1.825 1.825 0 010 3.648h-5.287V7.946zm-8.744 23.223h5.91a3.009 3.009 0 003.003-3.007v-8.336a5.297 5.297 0 014.123-5.16l1.974 9.366v5.873a7.452 7.452 0 00-2.828 4.483H20.74c-.683-5.256-5.023-9.188-10.44-9.188-2.416 0-4.585.79-6.295 2.146 1.413-2.646 4.2-4.45 7.4-4.45h7.01l1.809 6.12a3.02 3.02 0 002.88 2.153zM3.137 34.39c.256-1.56.922-2.965 1.94-4.054 1.329-1.422 3.184-2.205 5.223-2.205 3.774 0 6.823 2.652 7.477 6.258H3.137zM4.5 19.965a1.575 1.575 0 010-3.15h13.18a3.068 3.068 0 013.063 3.067c-.013.06-.11.1-.289.083H4.5zm5.606 20.396a4.51 4.51 0 01-4.258-3.044h8.516a4.51 4.51 0 01-4.258 3.044zm32.466 0a4.511 4.511 0 01-4.503-4.51 4.511 4.511 0 014.503-4.508 4.511 4.511 0 014.503 4.509 4.511 4.511 0 01-4.503 4.509z" fill="#63A60E"/><path d="M42.57 37.328a1.474 1.474 0 100-2.948 1.474 1.474 0 000 2.947zM1.524 9.64h13.122a1.464 1.464 0 000-2.929H1.524a1.464 1.464 0 000 2.93zm4.861-6.002H19.62a1.464 1.464 0 000-2.93H6.385a1.464 1.464 0 000 2.93z" fill="#63A60E"/></svg>
